X:1
T:Frauenliebe und Leben, Op.42
T:Er, der Herrlichste von allen
T:2. Er, der Herrlichste von Allen
T:Robert Schumann
T:Frauenliebe und Leben, Op.42
T:Adelbert von Chamisso
T:OpenScore (CC0)
T:OpenScore (CC0)
T:OpenScore (CC0)
C:Robert Schumann
Z:Adelbert von Chamisso
Z:OpenScore (CC0)
%%score 1 { ( 2 5 ) | ( 3 4 ) }
L:1/8
Q:1/4=120
M:4/4
K:Eb
V:1 treble nm="Voice"
V:2 treble nm="Piano"
V:5 treble 
V:3 bass 
V:4 bass 
V:1
"^Innig, lebhaft." z8 | !>!B3 G!<(! E3/2 G/!<)! B3/2 e/ | e2 F4 F F | _A3 A (!turn!A2 B) F | %4
w: |Er, der Herr- lich- ste von|Al- len, wie so|mil- de, wie _ so|
 G4 z2!f! G3/2 E/ | B2 B2 z2!f! G3/2 E/ | B2 B2 z2 G G | e3 e (!turn!e2 f) c | d4 z4 | %9
w: gut! Hol- de|Lip- pen, kla- res|Au- ge, hel- ler|Sinn und fe- * ster|Muth.|
 z2!mp! B G E3/2 G/ B e | e2 F2 z2 F F | _A3 A (!turn!A2 B3/2) F/ | G4 z2 G3/2 E/ | %13
w: So  wie  dort in blau- er|Tie- fe, hell und|herr- lich, je- * ner|Stern, al- so|
 B4- B G G3/2 E/ | B2 B2 G3 G | e3 e (!turn!e2 f) c | d4 z4 | z8 | z8 | z8 |!mf! G3 G c B A G | %21
w: Er _ an mei- nem|Him- mel, hell und|herr- lich, hehr _ und|fern.||||Wand- le, wand- le dei- ne|
 A2 A2 z2 A3/2 A/ | B3 B{/B} e3 =B | c4 z2 f e | d3 d e3 B | c2 c2 z4 | %26
w: Bah- nen; nur be-|trach- ten dei- nen|Schein, nur  in|De- muth ihn be-|trach- ten,|
[Q:1/4=115]"^dim." B3/2 B/[Q:1/4=110] d c[Q:1/4=105] B3[Q:1/4=100] =A | %27
w: se- lig  nur und trau- rig|
 (_A7 B)[Q:1/4=95][Q:1/4=90] |[Q:1/4=95] B3 G[Q:1/4=97] E G B3/2 e/ | %29
w: sein. _|Hö- re nicht mein stil- les|
[Q:1/4=99] e2 F4 F F[Q:1/4=101] |[Q:1/4=104] A3 A[Q:1/4=107] (!turn!A2 B) F | %31
w: Be- ten, dei- nem|Glü- cke nur _ ge-|
[Q:1/4=110] G4 z2[Q:1/4=120] G3/2 G/[Q:1/4=115] | B3 F G3 E | B2 F2 G3 G | e3 e (!turn!e2 f) c | %35
w: weiht; darfst mich|nie- d're Magd nicht|ken- nen, ho- her|Stern der Herr- * lich-|
 (d4 _d2) d d | (ce=d) c B3 D | E4 z2!p! E E | _d3 d c3 c | c2 F2 z2 F F | e3 e _d3 d | %41
w: keit, _ ho- her|Stern _ _ der Herr- lich-|keit! Nur die|Wür- dig- ste von|Al- len darf be-|glü- cken dei- ne|
 (_g4- gc) _d e | f3 f B3 B | e2 A2 z2 A3/2 A/ | (A4- AB/A/ G) F | c2 z2 z2 C C | B3 B =A3 A | %47
w: Wahl, _ _ und ich|will die Ho- he|seg- nen vie- le|tau- * * * * send|Mal. Will mich|freu- en dann und|
 =A2 D2 z4 | c3 c B B c d | (e4- e=A) B c | d3 d G3 G | c2 F2 z F2 F[Q:1/4=110] | %52
w: wei- nen,|se- lig, se- lig bin ich|dann; _ _ soll- te|mir das Herz auch|bre- chen, brich, o|
[Q:1/4=100]"^ritard." F3 F[Q:1/4=90] (F2{GF} =E) D | =A4[Q:1/4=110] z4[Q:1/4=105] | z8 | z8 | %56
w: Herz, was liegt _ da-|ran?|||
 !>!G3 =E C E G3/2 c/ | c2 F4 F F | _A3 A (!turn!A2 B) F | G4 z2 G3/2 E/ | B2 B2 z2 G3/2 E/ | %61
w: Er, der Herr- lich- ste von|Al- len, wie so|mil- de, wie _ so|gut! Hol- de|Lip- pen, kla- res|
 B2 B2 z2 G G | e3 e (!turn!e2 f) c | (d4 _d2)[Q:1/4=100] d d |[Q:1/4=85]"^ritard." (ce=d) c B3 D | %65
w: Au- ge, hel- ler|Sinn und fe- * ster|Muth, _ wie so|mil- * * de, wie so|
[Q:1/4=95] E4[Q:1/4=110] z4 | z8 | z8[Q:1/4=100][Q:1/4=90] |[Q:1/4=80] z8[Q:1/4=70] | z8 | z8 |] %71
w: gut!||||||
V:2
!p! (.[B,EGB].[B,EGB].[B,EGB].[B,EGB]) (.[B,EGB].[B,EGB].[B,EGB].[B,EGB]) | %1
 [B,EGB][B,EGB][B,EGB][B,EGB] [B,EGB][B,EGB][B,EGB][B,EGB] | %2
 [F,CEF][F,CEF][F,CEF][F,CEF]!<(! [F,CEF][F,CEF][F,CEF][F,CEF]!<)! | %3
 [_A,B,EF][A,B,EF][A,B,EF][A,B,EF] [A,B,DF][A,B,DF][A,B,DF][A,B,DF] | %4
 [B,FG][B,FG][B,FG][B,FG] [B,EG][B,EG][B,EG][B,EG] | %5
 [B,FB][B,FB][B,FB][B,FB] [B,EG][B,EG][B,EG][B,EG] | %6
 [CFB][CFB][CFB][CFB] [B,EG][B,EG][=B,FG][B,FG] | %7
!<(! [CEG][CEG][CEG][CEG]!<)! [=A,EF][A,EF][A,EF][A,EF] | [B,DF] (!>!f2 d!<(! B>df>b)!<)! | %9
 b!p! [B,EG][B,EG][B,EG] [B,EG][B,EG][B,EG][B,EG] | [CEG][CEG][CEF][CEF] [CEF][CEF][CEF][CEF] | %11
 [_A,EF][A,EF][A,EF][A,EF] [A,DF][A,DF][A,B,DF][A,B,DF] | %12
 [B,FG][B,FG][B,FG][B,FG] [B,EG][B,EG][B,EG][B,EG] | %13
 [B,FB][B,FB][B,FB][B,FB] [B,EG][B,EG][B,EG][B,EG] | %14
 [B,FB][B,FB][B,FB][B,FB]!<(! [B,EG][B,EG][=B,FG][B,FG]!<)! | %15
 [CEG][CEG][CEG][CEG] [=A,EF][A,EF][A,EF][A,EF] | [B,DF] (!>!f2 d!<(! B>df>b)!<)! | %17
 b (!>!B2 G E>GBe) | (e2 F4) F>F | A3 A !turn!A2 BF | [FG][FG][FG][FG] [EG][EG][EG][EG] | %21
 A3 A (dcBA) | [AB][AB][AB][AB] [GB][GB][GB][G=B] |!<(! c3 c (c f2 _e)!<)! | %24
!p! [FBd][FBd][FBd][FBd] [EBe][EBe][EBe][EB] | [Ec][Ec][Ec][Ec] [Dc][Dc][Dd][D=A] | %26
"^dim." [DB][DB]{/B}[Ed][Ec] [DB][DB][C=A][CA] | [_C_A][CA][CA][CA] [B,A][B,A][B,A][B,A] | %28
 [B,G][B,G][B,G][B,G] [B,EG][B,EG][B,EG][B,EG] | %29
 [=A,EG][A,EG][A,EF][A,EF] [_A,EF][A,EF][A,EF][A,EF] | %30
 [A,B,EF][A,B,EF][A,B,EF][A,B,EF] [A,B,DF][A,B,DF][A,B,DF][A,B,DF] | %31
 [B,FG][B,FG][B,FG][B,FG] [B,EG][B,EG][B,EG][B,EG] | %32
 [B,FB][B,FB][B,FB][B,FB] [B,EG][B,EG][B,EG][B,EG] | %33
 [B,FB][B,FB][B,FB][B,FB] [B,EG][B,EG][=B,FG][B,FG] | %34
 [CEG][CEG][CEG][CEG]!<(! [=A,EF][A,EF][A,EF][A,EF]!<)! | %35
 [_A,DF][A,DF][A,DF][A,DF] [G,_DE][G,DE][G,DE][G,DE] | %36
[I:staff +1] ([A,C][E,CE][E,B,=D][E,A,C] [E,G,B,][I:staff -1][G,B,E][B,DG][A,DF]) | %37
 [G,E] z!<(! (!>!_d4!<)!!>(! c2)!>)! |!p! [G,B,_D][G,B,D][G,B,D][G,B,D] [A,C][A,C][A,C][A,C] | %39
 [=A,CF] z (e4 _d2) |!p! [=A,C_G][A,CG][A,CG][A,CG] [B,_DF][B,DF][B,DF][B,DF] | %41
 [B,_D_G] z !>!_g2- gc_de | [Ff]!p![Ff][Ff][Ff]!p! [_FB]!p![FB][FB][FB] | %43
!p! [Ee]!p![Ee][Ee][Ee]!p! [EA]!p![EA][EA][EA] | %44
!p! [=DA][DA]!<(![DA][DA] [DA][DA]!<)!!>(![DG][DF]!>)! | =E z (!>![EG]4 F2) | %46
 [B,=EG][B,EG][B,EG][B,EG] [=A,CF][A,CF][A,CF][A,CF] | [=A,^F]D (!>![F=A]4 G2) | %48
 [^F,=A,E][F,A,E][F,A,E][F,A,E] [G,B,D][G,B,D][G,B,D][G,B,D] | !>![G,B,E] z e2- e=ABc | %50
 [Dd][Dd][Dd][Dd] [_DG][DG][DG][DG] | [Cc][Cc][Cc][Cc] [CF][CF][CF][CF] | %52
"^ritard." [=B,F][B,F][B,F][B,F] [B,F][B,F][B,=E][B,D] | [=A,^C]!<(! (=e2 ^c =A>ce>=a)!<)! | %54
 =a2 z[K:bass] (^F,!<(! D,>G,=A,>D)!<)! | D[K:treble] (!>!d2!<(! =B G>Bd>g)!<)! | %56
!mf! g[_B,=EG][B,EG][B,EG] [B,EG][B,EG][B,EG][B,EG] | %57
 [=A,_EG][A,EG][A,EF][A,EF] [A,EF][A,EF][A,EF][A,EF] | %58
 [_A,B,EF][A,B,EF][A,B,EF][A,B,EF] [A,B,DF][A,B,DF][A,B,DF][A,B,DF] | %59
 [B,FG][B,FG][B,FG][B,FG] [B,EG][B,EG][B,EG][B,EG] | %60
 [B,FB][B,FB][B,FB][B,FB] [B,EG][B,EG][B,EG][B,EG] | %61
 [B,FB][B,FB][B,FB][B,FB] [B,EG][B,EG][=B,FG][B,FG] | %62
!<(! [CEG][CEG][CEG][CEG]!<)! [=A,EF][A,EF][A,EF][A,EF] | %63
 [_A,DF][A,DF][A,DF][A,DF] [G,_DE][G,DE][G,DE][G,DE] | %64
"^ritard."[I:staff +1] ([A,C][E,CE][E,B,=D][E,A,C] [E,G,B,][I:staff -1][G,B,E][B,DG][A,DF]) | %65
 [G,E] z (!>!_d4 c2) | (G2 f4 e2-) | e"_dim." (e'f'_g' f'e'd'e') |"^dim." (b=bc'f =g2 [c_a]d) | %69
 f7 e | [Ge] z z2 z4 |] %71
V:3
!ped! z8!ped-up! | z4!p! ([G,,,G,,]4 | [A,,,A,,]4 [=A,,,=A,,]4 | [B,,,B,,]8) | %4
 [E,,,E,,]4 [E,,E,]4- | [E,,E,]2 [D,,D,]>[B,,,B,,] [E,,E,]4- | %6
 [E,,E,]2 [D,,D,]>[B,,,B,,] ([E,,E,]2 [D,,D,]2) | [C,,C,]4 [F,,F,]4 | %8
 [B,,,B,,][K:treble] [_A,B,DF][A,B,DF][A,B,DF] [A,B,DF][A,B,DF][A,B,DF][A,B,DF] | %9
 [G,B,EG] z z2[K:bass]!p! ([G,,,G,,]4 | [_A,,,_A,,]4 [=A,,,=A,,]4 | [B,,,B,,]8) | %12
 [E,,,E,,]4 [E,,E,]4- | [E,,E,]2 [D,,D,]>[B,,,B,,] [E,,E,]4- | %14
 [E,,E,]2 [D,,D,]>[B,,,B,,] ([E,,E,]2 [D,,D,]2) | [C,,C,]4 [F,,F,]4 | %16
 [B,,,B,,][K:treble] [_A,B,DF][A,B,DF][A,B,DF] [A,B,DF][A,B,DF][A,B,DF][A,B,DF] | %17
[K:bass]!ped! E,,[K:treble] [G,B,EG][G,B,EG][G,B,E] [G,B,][G,B,][G,B,E][G,B,E]!ped-up! | %18
[K:bass]!ped! A,,[E,F,C][E,F,C][E,F,C] [E,F,C][E,F,C][E,F,C][E,F,C]!ped-up! | %19
!ped! D,[A,B,E][A,B,E][A,B,E]!ped-up! [A,B,D][A,B,D][A,B,D][A,B,D] | !>![=B,D]4 C4 | %21
 [CE][CE][CE][CE] [DF][DF][DF][DF] | !>![DF]4 E4 |[K:treble] [=E_B][EB][EB][EB] [FA][FA][FA][FA] | %24
[K:bass] [A,B,D][A,B,D][A,B,D][A,B,D] [G,B,][G,B,][G,B,][G,B,] | %25
 [G,=A,][G,A,][G,A,][G,A,] [^F,A,][F,A,][F,A,][F,A,] | %26
 [G,=A,]G,[C,G,][C,G,] [D,G,][D,G,][D,^F,][D,F,] | %27
 [D,=F,][D,F,][D,F,][D,F,] [D,F,][D,F,][D,F,][D,F,] | [_D,E,]4 [_D,,D,]4 | [C,,C,]4 [_C,,_C,]4 | %30
 [B,,,B,,]8 | [E,,,E,,]4 [E,,E,]4- | [E,,E,]2 [D,,D,]>[B,,,B,,] [E,,E,]4- | %33
 [E,,E,]2 [D,,D,]>[B,,,B,,] [E,,E,]2 [D,,D,]2 | [C,,C,]4 [F,,F,]4 | [B,,,B,,]4 [E,,E,]4 | %36
 [A,,,A,,]3 [A,,,A,,] B,,2 B,,2 |!ped! E,,[G,B,_D][G,B,D][G,B,D] [G,B,D][G,B,D][A,C]!ped-up![A,C] | %38
 [E,,E,]8 |!ped! E,,[K:treble] [=A,CF][A,CF][A,CF] [A,CF]!ped-up![B,F][B,F] z |[K:bass] [E,,E,]8 | %41
 E,,[K:treble] [B,_D_G][B,DG][B,DG][K:bass] A,,[K:treble] [A,CG][A,B,G][A,CG] | %42
[K:bass] [_D,A,][D,A,][D,A,][D,A,] [D,=G,][D,G,][D,G,][D,G,] | %43
 [C,G,][C,G,][C,G,][C,G,] [C,F,][C,F,][C,F,][C,F,] | %44
 [=B,,F,][B,,F,][B,,F,][B,,F,] [B,,F,][B,,F,][B,,G,][B,,A,] | [C,G,] z (!>!_B,4 =A,2) | [C,,C,]8 | %47
 [C,,C,] z (!>!C4 B,2) | [C,,C,]8 | [C,,C,] [G,B,E][G,B,E][G,B,E]!p! F,, [F,=A,E][F,G,E][F,A,E] | %50
 [B,,F,B,][B,,F,B,][B,,F,B,][B,,F,B,] [B,,=E,][B,,E,][B,,E,][B,,E,] | %51
 [=A,,=E,][A,,E,][A,,E,][A,,E,] [A,,=D,][A,,D,][A,,D,][A,,D,] | %52
 [^G,,D,][G,,D,][G,,D,][G,,D,] [G,,D,][G,,D,][G,,=E,][G,,F,] | %53
!ped! [=A,,=E,] z[K:treble] [=A,^C=G][A,CG] [A,CG][A,CG][A,CG][A,CG]!ped-up! | %54
[K:bass]!ped! [D,=A,][K:treble] [=CD=A][CDA][CDA] [CDA][CDA][CDA][CDA]!ped-up! | %55
[K:bass]!ped! G,, [G,=B,=F][G,B,F][G,B,F] [G,B,F][G,B,F][G,B,F][G,B,F]!ped-up! | [C,,C,]8- | %57
 [C,,C,]4 [F,,,F,,]4 | [B,,,B,,]8 | [E,,,E,,]4 [E,,E,]4- | [E,,E,]2 [D,,D,]>[B,,,B,,] [E,,E,]4- | %61
 [E,,E,]2 [D,,D,]>[B,,,B,,] [E,,E,]2 [D,,D,]2 | [C,,C,]4 [F,,F,]4 | [B,,,B,,]4 [E,,E,]4 | %64
 [A,,,A,,]3 [A,,,A,,] B,,2 B,,2 | %65
!ped! E,, [G,B,_D][G,B,D][G,B,D] [G,B,D][G,B,D]!ped-up![A,C][A,C] | %66
 z [=B,=D][B,D][B,D] [B,D][B,D][CE][CE] |!ped! [E,_C_G]2 z2 z!ped-up![K:treble] (EF^F) | %68
 (G2 A=A)[I:staff -1] _B=B[I:staff +1] F[I:staff -1]_A | %69
[I:staff +1][K:bass] z (B,=B,C ^CD[I:staff -1]AG) |[I:staff +1] [E,B,E] z z2 z4 |] %71
V:4
 x8 | x8 | x8 | x8 | x8 | x8 | x8 | x8 | x[K:treble] x7 | x4[K:bass] x4 | x8 | x8 | x8 | x8 | x8 | %15
 x8 | x[K:treble] x7 |[K:bass] x[K:treble] x7 |[K:bass] x8 | x8 |{/E,-} E,8 |{/F,-} F,8 | %22
{/G,-} G,8 |[K:treble]{/A,-} A,8 |[K:bass] x8 | x8 | x8 | x8 | x8 | x8 | x8 | x8 | x8 | x8 | x8 | %35
 x8 | x4 B,,,4 | x8 | x8 | x[K:treble] x7 |[K:bass] x8 | x[K:treble] x3[K:bass] x[K:treble] x3 | %42
[K:bass] x8 | x8 | x8 | x8 | x8 | x8 | x8 | x8 | x8 | x8 | x8 | x2[K:treble] x6 | %54
[K:bass] x[K:treble] x7 |[K:bass] x8 | x8 | x8 | x8 | x8 | x8 | x8 | x8 | x8 | x4 B,,,4 | x8 | %66
 E,8- | x5[K:treble] x3 | B,4 B,4 |[K:bass] E,8- | x8 |] %71
V:5
 x8 | x8 | x8 | x8 | x8 | x8 | x8 | x8 | x8 | x8 | x8 | x8 | x8 | x8 | x8 | x8 | x8 | x8 | x8 | %19
 x8 | x8 | x8 | x8 | x8 | x8 | x8 | x8 | x8 | x8 | x8 | x8 | x8 | x8 | x8 | x8 | x8 | x8 | x8 | %38
 x8 | x8 | x8 | x8 | x8 | x8 | x8 | C CCC CCCC | x8 | x2 DD DDDD | x8 | x8 | x8 | x8 | x8 | x8 | %54
 x3[K:bass] x5 | x[K:treble] x7 | x8 | x8 | x8 | x8 | x8 | x8 | x8 | x8 | x8 | x8 | [FG]6 x2 | %67
 =A3 e f_gfe | e2 e2 x4 | [Ad]7[I:staff +1] _B,- | x8 |] %71

